X:94
T:Munster Buttermilk
R:single jig
H:Often played in D also, see #29
Z:id:hn-slide-94
M:6/8
K:G
gfg age | d2B BAB | d2B BAB | dBA GBd |
gfg age | d2B BAB | dBA GAB |1 ~A3 GBd :|2 ~A3 G2e ||
|: d2e g2a | ~b3 bag | ~a3 age | gab age |
d2e g2a | ~b3 bag | age deg |1 ~a3 g2e :|2 ~a3 g2d ||
<end>
<start>
